X:231
T: JETZUND BRICHT DIE NACHT HEREIN
N: E0816B
O: Europa, Mitteleuropa, Deutschland, Hessen, Darmstadt
R: Kilt - Lied
M: 4/4
L: 1/8
K: F
C2 | FGABc2cc | BABcA2z
c | fed2e2c2 | dc=B2c2z
c | f3cd2d2 | cdcBA2z
A | c2c2defB | A2G2F2

